assets/svg/icon-ui-disaster-recovery-blue.svg

<?xml version="1.0" encoding="UTF-8" standalone="no"?>
<svg width="85px" height="32px" viewBox="0 0 85 32" version="1.1" xmlns="http://www.w3.org/2000/svg" xmlns:xlink="http://www.w3.org/1999/xlink">
    <!-- Generator: Sketch 3.8.3 (29802) - http://www.bohemiancoding.com/sketch -->
    <title>blue/icon-ui-disaster-recovery-blue</title>
    <desc>Created with Sketch.</desc>
    <defs></defs>
    <g id="blue,-base" stroke="none" stroke-width="1" fill="none" fill-rule="evenodd">
        <g id="icons,-utility-(blue)" transform="translate(-243.000000, -1037.000000)" fill="#1055FF">
            <g id="blue/icon-ui-disaster-recovery-blue" transform="translate(243.000000, 1037.000000)">
                <g id="DBs">
                    <g id="PaaS">
                        <g id="paas">
                            <g id="Features">
                                <g id="PaaS-List">
                                    <g id="Backup">
                                        <g id="DBs">
                                            <g id="Fill-140-+-Fill-141-+-Fill-142">
                                                <path d="M14.5426667,26.2252585 C8.65892857,26.1997303 2.78571429,24.7363595 0,21.9473259 L0,25.5086741 C0,28.9937977 6.52538096,31.8220224 14.8571429,31.8583371 C23.1889047,31.8220224 29.7142857,28.9937977 29.7142857,25.5086741 L29.7142857,21.2134832 C27.547619,24.48 20.9309286,26.197573 14.5426667,26.2252585" id="Fill-140"></path>
                                                <path d="M25.3140953,9.29582023 C22.6481667,10.4082697 19.0784286,11.1651236 15.2616905,11.1651236 L15.2508571,11.1651236 L15.2400238,11.1651236 C11.4235952,11.1651236 7.85385714,10.4082697 5.18792857,9.29582023 C2.59133333,8.21213483 1.66988095,6.89797753 1.66988095,6.1839101 C1.66988095,5.4698427 2.59133333,4.28080898 5.18792857,3.19712359 C7.85385714,2.08467416 11.4235952,1.45725843 15.2400238,1.45725843 L15.2508571,1.45725843 L15.2616905,1.45725843 C19.0784286,1.45725843 22.6481667,2.06058427 25.3140953,3.17303371 C27.9106905,4.25635954 28.8318334,5.51838201 28.8318334,6.23244944 C28.8318334,6.9461573 27.9106905,8.21213483 25.3140953,9.29582023 M14.8571429,0 C6.70645239,0.0046741573 0.30952381,2.75703371 0,6.15586517 L0,11.6012584 C0,15.086382 6.52538096,17.9146067 14.8571429,17.9509213 C23.1889047,17.9146067 29.7142857,15.086382 29.7142857,11.6012584 L29.7142857,6.15586517 C29.7142857,2.75703371 23.0078334,0.0046741573 14.8571429,0" id="Fill-141"></path>
                                                <path d="M0,14.741573 L0,18.4021573 C0,21.8872809 6.52538096,24.7155056 14.8571429,24.7518201 C23.1889047,24.7155056 29.7142857,21.8872809 29.7142857,18.4021573 L29.7142857,14.741573 C27.2380953,17.7510112 20.9773571,19.3319551 14.8521905,19.3585618 C8.7347619,19.3319551 2.78571429,17.7513708 0,14.741573" id="Fill-142"></path>
                                            </g>
                                            <g id="Fill-140-+-Fill-141-+-Fill-143" transform="translate(54.857143, 0.000000)">
                                                <path d="M14.5426667,26.2252585 C8.65892857,26.1997303 2.78571429,24.7363595 0,21.9473259 L0,25.5086741 C0,28.9937977 6.52538096,31.8220224 14.8571429,31.8583371 C23.1889047,31.8220224 29.7142857,28.9937977 29.7142857,25.5086741 L29.7142857,21.2134832 C27.547619,24.48 20.9309286,26.197573 14.5426667,26.2252585" id="Fill-140"></path>
                                                <path d="M25.3140953,9.29582023 C22.6481667,10.4082697 19.0784286,11.1651236 15.2616905,11.1651236 L15.2508571,11.1651236 L15.2400238,11.1651236 C11.4235952,11.1651236 7.85385714,10.4082697 5.18792857,9.29582023 C2.59133333,8.21213483 1.66988095,6.89797753 1.66988095,6.1839101 C1.66988095,5.4698427 2.59133333,4.28080898 5.18792857,3.19712359 C7.85385714,2.08467416 11.4235952,1.45725843 15.2400238,1.45725843 L15.2508571,1.45725843 L15.2616905,1.45725843 C19.0784286,1.45725843 22.6481667,2.06058427 25.3140953,3.17303371 C27.9106905,4.25635954 28.8318334,5.51838201 28.8318334,6.23244944 C28.8318334,6.9461573 27.9106905,8.21213483 25.3140953,9.29582023 M14.8571429,0 C6.70645239,0.0046741573 0.30952381,2.75703371 0,6.15586517 L0,11.6012584 C0,15.086382 6.52538096,17.9146067 14.8571429,17.9509213 C23.1889047,17.9146067 29.7142857,15.086382 29.7142857,11.6012584 L29.7142857,6.15586517 C29.7142857,2.75703371 23.0078334,0.0046741573 14.8571429,0" id="Fill-141"></path>
                                                <path d="M0,14.741573 L0,18.4021573 C0,21.8872809 6.52538096,24.7155056 14.8571429,24.7518201 C23.1889047,24.7155056 29.7142857,21.8872809 29.7142857,18.4021573 L29.7142857,14.741573 C27.2380953,17.7510112 20.9773571,19.3319551 14.8521905,19.3585618 C8.7347619,19.3319551 2.78571429,17.7513708 0,14.741573" id="Fill-142"></path>
                                            </g>
                                            <path d="M35.6045154,13.6022325 C34.8175479,13.6022325 34.2857143,14.1622893 34.2857143,14.9636413 L34.2857143,16.8295089 C34.2857143,17.6308608 34.8175479,18.4207225 35.6045154,18.4207225 L43.0582272,18.4207225 L43.0582272,22.090188 C43.0582272,22.8919106 43.4621285,23.0979936 44.037459,22.5516511 L49.8616766,16.989631 C50.4373728,16.4429177 50.4216553,15.5566862 49.8463246,15.0103436 L44.0455006,9.44869419 C43.4701698,8.90161026 43.0582272,9.10843467 43.0582272,9.90978663 L43.0582272,13.6022325 L43.0582272,13.6022325 L35.6045154,13.6022325 L35.6045154,13.6022325 L35.6045154,13.6022325 Z" id="Fill-100"></path>
                                        </g>
                                    </g>
                                </g>
                            </g>
                        </g>
                    </g>
                </g>
            </g>
        </g>
    </g>
</svg>

<svg width="85" height="32" viewBox="0 0 85 32" xmlns="http://www.w3.org/2000/svg"><title>blue/icon-ui-disaster-recovery-blue</title><g fill="#1055FF" fill-rule="evenodd"><path d="M14.543 26.225C8.659 26.2 2.786 24.736 0 21.947v3.562c0 3.485 6.525 6.313 14.857 6.35 8.332-.037 14.857-2.865 14.857-6.35v-4.296c-2.166 3.267-8.783 4.985-15.171 5.012M25.314 9.296c-2.666 1.112-6.236 1.87-10.052 1.87h-.022c-3.816 0-7.386-.758-10.052-1.87C2.59 8.212 1.67 6.898 1.67 6.184S2.59 4.28 5.188 3.197c2.666-1.112 6.236-1.74 10.052-1.74h.022c3.816 0 7.386.604 10.052 1.716 2.597 1.083 3.518 2.345 3.518 3.06 0 .713-.921 1.98-3.518 3.063M14.857 0C6.707.005.31 2.757 0 6.156V11.6c0 3.485 6.525 6.314 14.857 6.35 8.332-.036 14.857-2.865 14.857-6.35V6.156c0-3.399-6.706-6.151-14.857-6.156"/><path d="M0 14.742v3.66c0 3.485 6.525 6.314 14.857 6.35 8.332-.036 14.857-2.865 14.857-6.35v-3.66c-2.476 3.009-8.737 4.59-14.862 4.617C8.735 19.332 2.786 17.75 0 14.742"/><g><path d="M69.4 26.225c-5.884-.025-11.757-1.489-14.543-4.278v3.562c0 3.485 6.526 6.313 14.857 6.35 8.332-.037 14.857-2.865 14.857-6.35v-4.296c-2.166 3.267-8.783 4.985-15.171 5.012M80.171 9.296c-2.666 1.112-6.235 1.87-10.052 1.87H70.098c-3.817 0-7.387-.758-10.053-1.87-2.597-1.084-3.518-2.398-3.518-3.112s.921-1.903 3.518-2.987c2.666-1.112 6.236-1.74 10.052-1.74H70.118c3.818 0 7.387.604 10.053 1.716 2.597 1.083 3.518 2.345 3.518 3.06 0 .713-.921 1.98-3.518 3.063M69.714 0c-8.15.005-14.547 2.757-14.857 6.156V11.6c0 3.485 6.526 6.314 14.857 6.35 8.332-.036 14.857-2.865 14.857-6.35V6.156c0-3.399-6.706-6.151-14.857-6.156"/><path d="M54.857 14.742v3.66c0 3.485 6.526 6.314 14.857 6.35 8.332-.036 14.857-2.865 14.857-6.35v-3.66c-2.476 3.009-8.736 4.59-14.862 4.617-6.117-.027-12.066-1.608-14.852-4.617"/></g><path d="M35.605 13.602c-.787 0-1.32.56-1.32 1.362v1.866c0 .8.533 1.59 1.32 1.59h7.453v3.67c0 .802.404 1.008.98.462l5.824-5.562c.575-.547.56-1.433-.016-1.98l-5.8-5.561c-.576-.547-.988-.34-.988.46v3.693h-7.453z"/></g></svg>
